!!!COM: Vivaldi, Antonio Lucio
!!!CDT: 1678/03/04-1741/08/28
!!!OPR: 12 Sonatas for Violin and Basso continuo
!!!OTL: Sonata in G major, op. @{OPS}, no. @{ONM} (@{SCT})
!!!OPS: 2
!!!ONM: 8
!!!OMV: 3. Corrente
!!!SCT: RV 23
!!!SCA: Antonio Vivaldi: Thematisch-systematisches Verzeichnis seiner Werke (Ryom-Verzeichnis)
!!!OMD: Allegro
!!!key: G
**kern	**fb	**kern
*part2	*	*part1
*staff2	*	*staff1
*ICklav	*	*ICstr
*Icemba	*	*Ivioln
*I"Basso continuo	*	*I"Violino
*I'bc	*	*I'v
*>[A,A,B,B]	*>[A,A,B,B]	*>[A,A,B,B]
*>norep[A,B]	*>norep[A,B]	*>norep[A,B]
*>A	*>A	*>A
*clefF4	*	*clefG2
*k[f#]	*	*k[f#]
*G:	*	*G:
*M3/4	*	*M3/4
*MM148	*	*MM148
=1	=1	=1
4GG/	.	4gg\
4G\	.	8G/L
.	.	8gg\
4r	.	8aa\
.	.	8bb\J
=2	=2	=2
4D\	.	4aa\
4d\	.	8d/L
.	.	8aa\
4r	.	8bb\
.	.	8ccc\J
=3	=3	=3
4GG/	.	4bb\
4G\	.	8G/L
.	.	8bb\
4r	.	8aa\
.	.	8gg\J
=4	=4	=4
4.D\	.	8ff#y/L
.	.	8d/
.	.	8f#y/
8C/	6 4 2	8a/
8BB/L	.	8dd/
8AA/J	.	8ff#y/J
=5	=5	=5
4GG/	.	4gg\
4G\	.	8G/L
.	.	8gg\
4r	.	8aa\
.	.	8bb\J
=6	=6	=6
4GG/	.	8ee\L
.	.	8B\
4AA/	#	8c#X\
.	.	8bb\
4C#X/	6	8aa\
.	.	8gg\J
!!LO:LB:g=original
=7	=7	=7
2D\	.	8ff#y\L
.	.	8c#X\
.	.	8d\
.	.	8aa\
4F#y\	6	8ddd\
.	.	8cccn\J
=8	=8	=8
2G\	.	8bb\L
.	.	8ff#y\
.	.	8gg\
.	.	8bb\
4GG/	.	8eee\
.	.	8ddd\J
=9	=9	=9
4AA/	#	8ccc#X\L
.	.	8ddd\
2C#X/	6	8eee\
.	.	8aa\
.	.	8bb\
.	.	8gg\J
=10	=10	=10
8D\L	.	8ff#y/L
8E\	.	8cc#X/
8F#y\	.	8dd/
8G\	.	8f#y/
8A\	#	8A/
8AA\J	.	8cc#y/J
=11	=11	=11
4.D\	.	8dd/L
.	.	8d/
.	.	8f#y/
8C/	.	8a/J
8BB/L	.	4dd\
8AA/J	.	.
=12:|!|:	=12:|!|:	=12:|!|:
*>B	*>B	*>B
4GG/	.	4gg\
4G\	.	8G/L
.	.	8gg\
4BB/	7 5nr	8aa\
.	.	8ffn\J
=13	=13	=13
2C/	.	8ee/L
.	.	8g/
.	.	8c/
.	.	8ee/
4r	.	8ff#y/
.	.	8gg#X/J
=14	=14	=14
4C#X/	6	4aa\
4A\	.	8A/L
.	.	8aa\
4C#y/	5	8bb\
.	.	8ggn\J
!!LO:LB:g=original
=15	=15	=15
2D\	.	8ff#y\L
.	.	8a\
.	.	8d\
.	.	8aa\
4r	.	8bb\
.	.	8ccc\J
=16	=16	=16
4F#y\	6	4ddd\
4d\	.	8d/L
.	.	8aa\
4F#y\	.	8ddd\
.	.	8ccc\J
=17	=17	=17
2G\	.	8bb\L
.	.	8ccc\
.	.	8ddd\
.	.	8gg\
4BB/	7 5nr	8aa\
.	.	8ffn\J
=18	=18	=18
4C/	.	8ee\L
.	.	8dd\
4AA/	.	8cc\
.	.	8a\
4C#X/	7 5	8b\
.	.	8g\J
=19	=19	=19
2D\	.	8f#y/L
.	.	8d/
.	.	8f#y/
.	.	8a/
4r	.	8cc/
.	.	8ff#y/J
=20	=20	=20
2D\	.	8aa\L
.	.	8d\
.	.	8f#y\
.	.	8a\
4r	.	8cc\
.	.	8ff#y\J
=21	=21	=21
2GG/	.	8gg/L
.	.	8G/
.	.	8B/
.	.	8d/
4r	.	8fn/
.	.	8b/J
=22	=22	=22
2GG/	.	8dd/L
.	.	8G/
.	.	8B/
.	.	8d/
4r	.	8fn/
.	.	8b/J
!!LO:LB:g=original
=23	=23	=23
2C/	.	8cc/L
.	.	8c/
.	.	8e/
.	.	8g/
4r	.	8cc/
.	.	8ee/J
=24	=24	=24
4D\	.	4f#X/
4d\	.	8d/L
.	.	8ee/
4F#y\	6 5	8dd/
.	.	8cc/J
=25	=25	=25
2G\	.	8b/L
.	.	8d/
.	.	8G/
.	.	8aa/
4BB/	6 5nr	8gg/
.	.	8ffn/J
=26	=26	=26
2C\	.	8ee\L
.	.	8g\
.	.	8c\
.	.	8bb\
4C#X/	6 5	8aa\
.	.	8gg\J
=27	=27	=27
2D\	.	8ff#y\L
.	.	8gg\
.	.	8aa\
.	.	8dd\
4FF#y/	5	8ee\
.	.	8cc\J
=28	=28	=28
8GG/L	.	8b/L
8AA/	.	8f#y/
8BB/	.	8g/
8C/	.	8B/
8D/	.	8A/
8DD/J	.	8f#y/J
=29	=29	=29
2GG/	.	4g/
.	.	8G/L
.	.	8d/
4r	.	8e/
.	.	8f#y/J
=30	=30	=30
2GG/	.	4g/
.	.	8G/L
.	.	8B/
4r	.	8c/
.	.	8d/J
=31	=31	=31
2.GG/;	.	2.G/;
=:|!	=:|!	=:|!
*-	*-	*-
!!!SMS: RV 23 / Estienne Roger, Amsterdam [facs.]
!!!ENC: Fran Bennion; rev. E Correia (4/21)
!!!END: 2004/12/02
!!!ONB: Converted from MuseData with musedata2hum on Sat May 11 12:07:52 2024
!!!YEM: (C) 2004, 2004 Center for Computer Assisted Research in the Humanities.
!!!system-decoration: [(s1,s2)]
!!!URL-info: https://wiki.ccarh.org/wiki/MuseData:_Antonio_Vivaldi#Op._2:_Sonate_a_violino_e_basso_per_il_cembalo
!!!URL-pdf: https://pdf.musedata.org/vivaldi-op02-no08.pdf#page=3 MuseData edition
!!!URL-pdf: http://conquest.imslp.info/files/imglnks/usimg/b/b7/IMSLP99075-PMLP183164-Vivaldi_-_Sonatas_Op2.pdf#page=30 Estienne Roger Amsterdam: Estienne Roger, No.2, n.d.[1711].
!!!URL-youtube: https://www.youtube.com/watch?v=SiijZmW9jKM&t=3240s L'Arte dell'Arco
!!!title: @{OTL}, mov. @{OMV}
!!!filter-chint: chint -mid
!!!EEV: 2024/05/11
!!!source-file: https://bitbucket.org/musedata/vivaldi/src/master/roger/op2/no08/stage2/03/01
!!!source-file: https://bitbucket.org/musedata/vivaldi/src/master/roger/op2/no08/stage2/03/02
